X: 14783
T: Gan Ainm
R: polka
M: 2/4
K: Gmajor
|:DD BG|DD Be|dB AF|E^D E2|
DD BG|DD Be|dB AF|EF G2:|
K: Dmaj
|:AA fA|gg ec|BB AF|AA FG|
AA fA|gg ec|BB AF|Bc d2:|

